logos/aws-codecommit.svg

<?xml version="1.0" encoding="UTF-8"?>
<svg width="256px" height="256px" viewBox="0 0 256 256" version="1.1" xmlns="http://www.w3.org/2000/svg" xmlns:xlink="http://www.w3.org/1999/xlink" preserveAspectRatio="xMidYMid">
    <title>AWS CodeCommit</title>
    <defs>
        <linearGradient x1="0%" y1="100%" x2="100%" y2="0%" id="linearGradient-1">
            <stop stop-color="#2E27AD" offset="0%"></stop>
            <stop stop-color="#527FFF" offset="100%"></stop>
        </linearGradient>
    </defs>
    <g>
        <rect fill="url(#linearGradient-1)" x="0" y="0" width="256" height="256"></rect>
        <path d="M85.2106195,89.9351203 L78.7539824,89.9351203 L78.7539824,67.5937664 C78.7539824,65.8064579 79.9064922,64.4244858 81.7175789,64.4244858 L104.580531,64.4021443 L104.580531,70.7853885 L89.4397168,70.7853885 L104.996984,86.2041142 L100.374032,90.7936666 L84.9943222,75.6653782 L85.2106195,89.9351203 Z M175.035356,124.711034 L181.014202,127.356888 L160.081784,173.584341 L154.106166,170.938486 L175.035356,124.711034 Z M179.228941,158.286897 L192.03891,149.040768 L180.755936,137.726468 L185.420857,133.178407 L199.370421,147.170477 C200.038683,147.840718 200.380885,148.766289 200.300177,149.704625 C200.225926,150.642962 199.73845,151.5047 198.966881,152.056851 L183.086782,163.514774 L179.228941,158.286897 Z M150.290294,130.120833 L154.148134,135.34871 L141.150924,144.728887 L152.472637,156.046378 L147.82063,160.600823 L133.822641,146.608752 C133.15115,145.938511 132.80572,145.012941 132.886428,144.074604 C132.96068,143.133076 133.444927,142.274529 134.219724,141.719187 L150.290294,130.120833 Z M220.8,77.2165066 L220.8,214.360504 C220.8,216.151004 219.334343,217.6 217.523257,217.6 L117.493805,217.6 C116.622159,217.6 115.792481,217.258496 115.179101,216.648897 C114.56572,216.042488 114.265487,215.266924 114.265487,214.408378 L114.265487,176.108914 L120.722124,176.108914 L120.722124,211.216756 L214.343363,211.216756 L214.343363,80.3602544 L120.722124,80.3602544 L120.722124,73.9770102 L217.523257,73.9770102 C219.334343,73.9770102 220.8,75.4260067 220.8,77.2165066 L220.8,77.2165066 Z M106.181777,110.680663 C106.181777,104.51445 111.253466,99.4972198 117.493805,99.4972198 C123.734145,99.4972198 128.805834,104.51445 128.805834,110.680663 C128.805834,116.846877 123.734145,121.864107 117.493805,121.864107 C111.253466,121.864107 106.181777,116.846877 106.181777,110.680663 L106.181777,110.680663 Z M56.1557523,211.229523 C49.9154125,211.229523 44.8437238,206.212293 44.8437238,200.046079 C44.8437238,193.879865 49.9154125,188.862636 56.1557523,188.862636 C62.3960922,188.862636 67.4677805,193.879865 67.4677805,200.046079 C67.4677805,206.212293 62.3960922,211.229523 56.1557523,211.229523 L56.1557523,211.229523 Z M44.8437238,136.213639 C44.8437238,130.047426 49.9154125,125.030196 56.1557523,125.030196 C62.4993981,125.030196 67.4677805,129.942102 67.4677805,136.213639 C67.4677805,142.379853 62.3960922,147.397083 56.1557523,147.397083 C49.9154125,147.397083 44.8437238,142.379853 44.8437238,136.213639 L44.8437238,136.213639 Z M44.8566371,55.953921 C44.8566371,49.7940906 49.9250973,44.7832438 56.1557523,44.7832438 C62.386407,44.7832438 67.4548672,49.7940906 67.4548672,55.953921 C67.4548672,62.1105597 62.386407,67.1245981 56.1557523,67.1245981 C49.9250973,67.1245981 44.8566371,62.1105597 44.8566371,55.953921 L44.8566371,55.953921 Z M120.722124,151.195113 L120.722124,127.909039 C128.944651,126.383444 135.236644,119.243785 135.236644,110.680663 C135.236644,101.010049 127.275611,93.1395088 117.493805,93.1395088 C107.712,93.1395088 99.7509664,101.010049 99.7509664,110.680663 C99.7509664,119.243785 106.042959,126.383444 114.265487,127.909039 L114.265487,151.195113 C114.265487,154.916544 111.750627,158.290089 107.928297,159.790151 L74.4861453,172.910909 C69.133593,175.010996 65.1982726,179.140955 63.4969488,184.097544 C62.112,183.471986 60.9336637,183.021967 59.3840707,182.763446 L59.3840707,153.496272 C67.7776992,152.111108 73.898591,144.898043 73.898591,136.213639 C73.898591,127.369655 67.8874621,120.303404 59.3840707,118.956539 L59.3840707,73.246129 C67.787384,71.8641565 73.9115043,64.6447075 73.9115043,55.953921 C73.9115043,46.2737315 65.9472426,38.4 56.1557523,38.4 C46.3642621,38.4 38.4,46.2737315 38.4,55.953921 C38.4,64.4021443 44.8695504,71.4747786 52.9274336,73.1344221 L52.9274336,119.045905 C44.8792355,120.705548 38.4129133,127.771799 38.4129133,136.213639 C38.4129133,144.655479 44.8792355,151.721731 52.9274336,153.381374 L52.9274336,182.878344 C44.8792355,184.537988 38.4129133,191.604239 38.4129133,200.046079 C38.4129133,209.716694 46.3739469,217.587234 56.1557523,217.587234 C65.9375574,217.587234 73.898591,209.716694 73.898591,200.046079 C73.898591,195.491635 72.1165594,191.348909 69.2304426,188.227503 C69.7663434,184.161376 72.6427754,180.599526 76.9009274,178.930308 L110.34308,165.80955 C116.677041,163.323276 120.722124,157.587932 120.722124,151.195113 L120.722124,151.195113 Z" fill="#FFFFFF"></path>
    </g>
</svg>

<svg preserveAspectRatio="xMidYMid" viewBox="0 0 256 256" xmlns="http://www.w3.org/2000/svg">
  <defs>
    <linearGradient id="aws-codecommit_svg__a" x1="0%" x2="100%" y1="100%" y2="0%">
      <stop offset="0%" stop-color="#2E27AD"/>
      <stop offset="100%" stop-color="#527FFF"/>
    </linearGradient>
  </defs>
  <path fill="url(#aws-codecommit_svg__a)" d="M0 0h256v256H0z"/>
  <path fill="#FFF" d="M85.21 89.935h-6.456V67.594c0-1.788 1.152-3.17 2.964-3.17l22.863-.022v6.383H89.44l15.557 15.42-4.623 4.589-15.38-15.129.217 14.27Zm89.825 34.776 5.98 2.646-20.933 46.227-5.976-2.646 20.93-46.227Zm4.194 33.576 12.81-9.246-11.283-11.315 4.665-4.548 13.95 13.992c.668.67 1.01 1.596.93 2.535a3.207 3.207 0 0 1-1.334 2.352l-15.88 11.458-3.858-5.228ZM150.29 130.12l3.858 5.228-12.997 9.38 11.322 11.317-4.652 4.555-13.998-13.992a3.196 3.196 0 0 1-.937-2.534c.075-.942.559-1.8 1.334-2.356l16.07-11.598Zm70.51-52.904V214.36c0 1.79-1.466 3.239-3.277 3.239h-100.03a3.277 3.277 0 0 1-2.314-.951c-.613-.607-.914-1.382-.914-2.24v-38.3h6.457v35.108h93.621V80.36h-93.62v-6.383h96.8c1.811 0 3.277 1.449 3.277 3.24ZM106.182 110.68c0-6.167 5.071-11.184 11.312-11.184 6.24 0 11.312 5.017 11.312 11.184 0 6.166-5.072 11.183-11.312 11.183-6.24 0-11.312-5.017-11.312-11.183ZM56.156 211.23c-6.24 0-11.312-5.018-11.312-11.184 0-6.166 5.071-11.183 11.312-11.183 6.24 0 11.312 5.017 11.312 11.183 0 6.166-5.072 11.184-11.312 11.184Zm-11.312-75.016c0-6.167 5.071-11.184 11.312-11.184 6.343 0 11.312 4.912 11.312 11.184 0 6.166-5.072 11.183-11.312 11.183-6.24 0-11.312-5.017-11.312-11.183Zm.013-80.26c0-6.16 5.068-11.17 11.299-11.17 6.23 0 11.299 5.01 11.299 11.17 0 6.157-5.069 11.17-11.3 11.17-6.23 0-11.298-5.013-11.298-11.17Zm75.865 95.241V127.91c8.223-1.526 14.515-8.665 14.515-17.228 0-9.671-7.961-17.541-17.743-17.541-9.782 0-17.743 7.87-17.743 17.54 0 8.564 6.292 15.703 14.514 17.229v23.286c0 3.722-2.514 7.095-6.337 8.595l-33.442 13.12c-5.352 2.101-9.288 6.231-10.99 11.188-1.384-.626-2.562-1.076-4.112-1.335v-29.267c8.394-1.385 14.515-8.598 14.515-17.282 0-8.844-6.012-15.91-14.515-17.257v-45.71c8.403-1.383 14.528-8.602 14.528-17.293 0-9.68-7.965-17.554-17.756-17.554-9.792 0-17.756 7.874-17.756 17.554 0 8.448 6.47 15.52 14.527 17.18v45.912c-8.048 1.66-14.514 8.726-14.514 17.168 0 8.441 6.466 15.508 14.514 17.167v29.497c-8.048 1.66-14.514 8.726-14.514 17.168 0 9.67 7.96 17.541 17.743 17.541 9.782 0 17.743-7.87 17.743-17.54 0-4.555-1.782-8.698-4.669-11.82.536-4.066 3.413-7.627 7.67-9.297l33.443-13.12c6.334-2.487 10.38-8.222 10.38-14.615Z"/>
</svg>
